X: 1
T: String Quartet in D major opus 1 no 3 mvt 1
C: Franz Joseph Haydn
%%abc-version 2.0
%%abcx-abcm2ps-target-version 5.9.1 (29 Sep 2008)
%%abc-creator hum2abc beta
%%abcx-conversion-date 2021/02/14 14:38:14
%%abc-copyright Copyright (c) 1994, 2000 Center for Computer Assisted Research in the Humanities
%%abc-edited-by Frances Bennion
%%abcx-initial-encoding-date 1997/04/15
%%gracespace 0 6 6
%%humdrum-veritas 901201617
%%humdrum-veritas-data 892531413
%%linebreak <none>
%%barnumbers 0
L: 1/8
M: 3/4
N: Derived from op01n3-01.krn
Q: "Adagio"
%%staves [1 2 3 4]
V: 1
V: 2
V: 3 clef=alto
V: 4 clef=bass
K: D
[V:1]a6- [I:setbarnb2] |
[V:2]z6 |
[V:3]FF FF FF |
[V:4]D,D, D,D, D,D, |
[V:1]a6- |
[V:2]z6 |
[V:3]EE EE GG |
[V:4]C,C, C,C, E,E, |
[V:1]a3 g/f/ e/d/c/d/ |
[V:2]z6 |
[V:3]FF FF FF |
[V:4]D,D, D,D, D,D, |
[V:1]B2 A2 z3/d/ |
[V:2]z6 |
[V:3]GG FF FF |
[V:4]D,D, D,D, D,D, |
[V:1]B2 Ad/c/ f/d/c/d/ |
[V:2]z6 |
[V:3]GG FF FF |
[V:4]D,D, D,D, D,D, |
[V:1]G2 F2 zd |
[V:2]z6 |
[V:3]EE DD DD |
[V:4]A,,A,, D,D, F,F, |
[V:1]E2- EG/F/ GF/E/ |
[V:2]z6 |
[V:3]DD CC CC |
[V:4]G,G, A,A, A,,A,, |
[V:1]F>E D2 z2 |
[V:2]A6- |
[V:3]DD FF FF |
[V:4]D,D, D,D, D,D, |
[V:1]z6 |
[V:2]A6- |
[V:3]EE EE GG |
[V:4]C,C, C,C, E,E, |
[V:1]z6 |
[V:2]A3 G/F/ E/D/C/D/ |
[V:3]FF, F,F, F,F, |
[V:4]D,D, D,D, D,D, |
[V:1]z6 |
[V:2]B,2 A,2 z3/d/ |
[V:3]G,G, F,F, FF |
[V:4]D,D, D,D, D,D, |
[V:1]z6 |
[V:2]B2 Ad/c/ f/d/c/d/ |
[V:3]GG FF FF |
[V:4]D,D, D,D, D,D, |
[V:1]z6 |
[V:2]G2 F2 zd |
[V:3]EE DD DD |
[V:4]A,,A,, D,D, F,F, |
[V:1]z6 |
[V:2]E2 Eb ge |
[V:3]B,B, B,B, B,B, |
[V:4]G,G, G,G, G,^G, |
[V:1]e2- e/a/^g/b/ a/c'/c/e/ |
[V:2]c>B A2 z2 |
[V:3]A,A, A,E EE |
[V:4]A,A, A,A, A,A, |
[V:1]d>c d4- |
[V:2]A2 A/d/c/e/ d/f/F/A/ |
[V:3]B,B, B,F FF |
[V:4]B,B, B,B, B,B, |
[V:1]d2 d/^g/g/b/ b/g/e/d/ |
[V:2]^G>F G4 |
[V:3]EE B,B, B,B, |
[V:4]E,E, E,E, E,E, |
[V:1]c>B c4- |
[V:2]G2 G/c/c/e/ e/c/A/G/ |
[V:3]A,A, A,A, A,A, |
[V:4]A,A, A,A, A,A, |
[V:1]c2- c/B/d/c/ fA |
[V:2]F>E F4 |
[V:3]DD DD ^DD |
[V:4]D,D, D,D, ^D,D, |
[V:1]^G2 ^g7/ a//b// |
[V:2]E/b/b/^g/ g/e/e/B/ B/^G/G/E/ |
[V:3]E2 d4 |
[V:4]E,E, E,E, E,E, |
[V:1]a2 a7/ b//c'// |
[V:2]A/a/a/e/ e/c/c/A/ e/c/c/A/ |
[V:3]c2 c3 A |
[V:4]E,E, E,E, E,E, |
[V:1]b2 b7/ c'//d'// |
[V:2]E/b/b/^g/ g/e/e/B/ B/^G/G/E/ |
[V:3]^G2 G2- G3/A//B// |
[V:4]E,E, E,E, E,E, |
[V:1]c'e' e'/c'/c'/a/ e/d'/d'/d'/ |
[V:2]A2 z2 E/B/B/B/ |
[V:3]A2 z2 E/^G/G/G/ |
[V:4]A,,2 z2 E,2 |
[V:1]c'e' e'/c'/c'/a/ e/d'/d'/d'/ |
[V:2]A2 z2 ^G/B/B/B/ |
[V:3]A2 z2 E/^G/G/G/ |
[V:4]A,2 z2 E,2 |
[V:1]c'/e'/d'/c'/ d'/e'/f'/^g'/ a'2 |
[V:2]A2 z4 |
[V:3]A2 z4 |
[V:4]A,2 z4 |
[V:1]F>d c2 B2 |
[V:2]D>B A2 ^G2 |
[V:3]DD EE EE |
[V:4]D,D, E,E, E,E, |
[V:1]A3 a/^g/ g/f/f/e/ |
[V:2]A3 f/e/ e/d/d/c/ |
[V:3]A,A, A,A, A,A, |
[V:4]A,,A,, A,,A,, A,,A,, |
[V:1]e/d/d/c/ c/f/f/e/ e/d/d/c/ |
[V:2]c/B/B/A/ A/d/d/c/ c/B/B/A/ |
[V:3]A,A, A,A, A,A, |
[V:4]A,,A,, A,,A,, A,,A,, |
[V:1]c2 B2 z2 |
[V:2]A2 A2 z2 |
[V:3]F2 F2 z2 |
[V:4]F,2 ^D,2 z2 |
[V:1]B2- Bd/c/ dc/B/ |
[V:2]A2 ^GG GG |
[V:3]EE EE EE |
[V:4]E,E, E,E, E,E, |
[V:1]A2 z/F/d/c/ d/B/A/^G/ |
[V:2]A/E/D/C/ D4 |
[V:3]E/C/B,/A,/ B,4 |
[V:4]A,,A,, A,,A,, A,,A,, |
[V:1]A2 z/F/d/c/ d/B/A/^G/ |
[V:2]C/E/D/C/ D4 |
[V:3]E,/C/B,/A,/ B,4 |
[V:4]A,,A,, A,,A,, A,,A,, |
[V:1]A2 A,2 z2 |
[V:2]C2 A,2 z2 |
[V:3]A,2 z4 |
[V:4]A,,2 A,2 z2 |
[V:1]a6- |
[V:2]a/e/d/c/ e/c/B/A/ c/A/^G/A/ |
[V:3]z6 |
[V:4]A,,A, C,A, E,A, |
[V:1]a/e/e/d/ d/c/c/B/ B/A/^G/A/ |
[V:2]A,2 z4 |
[V:3]A,A CA EA |
[V:4]A,,2 z4 |
[V:1]a6- |
[V:2]a/f/e/^d/ f/d/c/B/ d/B/^A/B/ |
[V:3]B,2 z4 |
[V:4]B,,A, ^D,A, F,A, |
[V:1]a/g/g/f/ f/e/e/^d/ d/=c/c/B/ |
[V:2]B,2 z4 |
[V:3]B,A ^DA FA |
[V:4]B,,2 z4 |
[V:1]g6- |
[V:2]g/e/^d/e/ e/B/A/G/ B/G/F/E/ |
[V:3]B,2 z4 |
[V:4]E,B, G,B, E,B, |
[V:1]g/f/f/e/ e/d/d/c/ c/B/A/g/ |
[V:2]A2 z4 |
[V:3]A,A CA EA |
[V:4]A,,2 z4 |
[V:1]f2 za/f/ d'/a/g/f/ |
[V:2]zA/G/ G/F/F z2 |
[V:3]DF/E/ E/D/D z2 |
[V:4]D,D, D,D, D,D, |
[V:1]e2 ze/c/ c'/e/d/c/ |
[V:2]ze/d/ d/c/c z2 |
[V:3]zc/B/ B/A/A z2 |
[V:4]A,A, A,A, ^A,A, |
[V:1]d2 zf/d/ b/f/e/d/ |
[V:2]zd/c/ c/B/B z2 |
[V:3]zF/E/ E/D/D z2 |
[V:4]B,B, B,B, B,B, |
[V:1]c2 f4- |
[V:2]z^A A/B/B/c/ cA |
[V:3]zF F/^G/G/^A/ AF/E/ |
[V:4]F,F, F,F, F,F, |
[V:1]f6- |
[V:2]BB B/c/c/d/ dB |
[V:3]DD D/C/C/B,/ B,B, |
[V:4]F,F, F,F, F,F, |
[V:1]f6- |
[V:2]cc c/d/d/e/ ec |
[V:3]^A,^A A/B/B/c/ cA |
[V:4]F,F, F,F, F,F, |
[V:1]f/g/g/f/ f/e/e/d/ d/c/c/B/ |
[V:2]dD DD DD |
[V:3]BB, B,B, B,B, |
[V:4]B,,B,, B,,B,, B,,B,, |
[V:1]g2 ^a2 z2 |
[V:2]B2 c2 z2 |
[V:3]E2 G2 z2 |
[V:4]E,2 E,2 z2 |
[V:1]b2 b/^a/b/c'/ d'/b/a/b/ |
[V:2]BB BB BB |
[V:3]FF FF FF |
[V:4]D,D, D,D, D,D, |
[V:1]g3/f//e// d2 c2 |
[V:2]e3/d//c// B2 ^A2 |
[V:3]EE FF F,F, |
[V:4]E,E, F,F, F,,F,, |
[V:1]B2 z4 |
[V:2]B2 d4- |
[V:3]B,B, FF =FF |
[V:4]B,,B,, B,B, A,A, |
[V:1]z2 b4 |
[V:2]d/b/b/a/ a/^g/g/=f/ f/e/e/d/ |
[V:3]EE EE EE |
[V:4]^G,G, G,G, G,G, |
[V:1]a2 z4 |
[V:2]c2 =c4- |
[V:3]EE EE _EE |
[V:4]A,A, A,A, G,G, |
[V:1]z2 a4- |
[V:2]c/a/a/g/ g/f/f/e/ e/d/d/=c/ |
[V:3]DD DD DD |
[V:4]F,F, F,F, F,F, |
[V:1]a/b/b/a/ a/g/g/f/ f/e/e/^d/ |
[V:2]BB BB BB- |
[V:3]GG GG GG |
[V:4]G,G, G,G, G,G, |
[V:1]e/g/g/b/ b/a/a/g/ g/f/e/f/ |
[V:2]B/e/e/g/ g/f/f/e/ e/d/c/d/ |
[V:3]GG GG ^GG |
[V:4]G,G, G,G, ^G,G, |
[V:1]f2 e2 z2 |
[V:2]d2 c2 z2 |
[V:3]AA, AG FE |
[V:4]A,A,, A,G, F,E, |
[V:1]a6- |
[V:2]z6 |
[V:3]FF FF FF |
[V:4]D,D, D,D, D,D, |
[V:1]a6- |
[V:2]z6 |
[V:3]EE EE GG |
[V:4]C,C, C,C, E,E, |
[V:1]a3 g/f/ e/d/c/d/ |
[V:2]z6 |
[V:3]FF FF FF |
[V:4]D,D, D,D, D,D, |
[V:1]B2 A2 z3/d/ |
[V:2]z6 |
[V:3]GG FF FF |
[V:4]D,D, D,D, D,D, |
[V:1]B2 Ad/c/ f/d/c/d/ |
[V:2]z6 |
[V:3]GG FF FF |
[V:4]D,D, D,D, D,D, |
[V:1]G2 F2 z3/d/ |
[V:2]z6 |
[V:3]EE DD DD |
[V:4]A,,A,, D,D, F,F, |
[V:1]E2- EG/F/ GF/E/ |
[V:2]z6 |
[V:3]DD CC CC |
[V:4]G,G, A,A, A,,A,, |
[V:1]F>E D2 z2 |
[V:2]A6- |
[V:3]DD FF FF |
[V:4]D,D, D,D, D,D, |
[V:1]B2- B/A/B/A/ B2 |
[V:2]A/G/F/G/ G4- |
[V:3]DD DD G/F/E/D/ |
[V:4]G,G, G,G, E,E, |
[V:1]A2- A/G/F/G/ A2 |
[V:2]G/F/E/F/ F4- |
[V:3]CC CC F/E/D/C/ |
[V:4]F,F, F,F, D,D, |
[V:1]G2- G/F/E/F/ G2 |
[V:2]F/E/D/E/ E4- |
[V:3]B,B, B,B, E/D/C/B,/ |
[V:4]E,E, E,E, C,C, |
[V:1]F2- F/E/D/E/ F/A/G/F/ |
[V:2]E/D/C/D/ D2 D/F/E/D/ |
[V:3]A,A, A,A, DD |
[V:4]D,D, D,D, D,D, |
[V:1]F2 E2 z2 |
[V:2]D2 C2 z2 |
[V:3]A,A, A,A, CC |
[V:4]A,,A,, A,A, G,G, |
[V:1]a2- a/d'/c'/e'/ d'/f'/f/a/ |
[V:2]z6 |
[V:3]DD DD DD |
[V:4]F,F, F,F, F,F, |
[V:1]g>f g4- |
[V:2]d2 d/g/f/a/ g/b/B/d/ |
[V:3]EE EE EE |
[V:4]E,E, E,E, E,E, |
[V:1]g2 g/c'/c'/e'/ e'/c'/a/g/ |
[V:2]c>B c4 |
[V:3]A,A, A,A, A,A, |
[V:4]A,,A,, A,,A,, A,,A,, |
[V:1]f>e f4- |
[V:2]c2 c/f/f/a/ a/f/d/c/ |
[V:3]DD DD DD |
[V:4]D,D, D,D, D,D, |
[V:1]f2 f/e/g/f/ bd |
[V:2]B>A B4 |
[V:3]GG, G,G, ^G,G, |
[V:4]G,G,, G,,G,, ^G,,G,, |
[V:1]c2 c7/ d//e// |
[V:2]A/e/e/c/ c/A/A/E/ E/C/C/A,/ |
[V:3]A,2 G4 |
[V:4]A,,A,, A,,A,, A,,A,, |
[V:1]d2 d7/ e//f// |
[V:2]D/d/d/A/ A/F/F/D/ A/F/F/D/ |
[V:3]F2 F3 D |
[V:4]A,,A,, A,,A,, A,,A,, |
[V:1]e2 e7/ f//g// |
[V:2]A,/e/e/c/ c/A/A/E/ E/C/C/A,/ |
[V:3]C2 C2- C3/D//E// |
[V:4]A,,A,, A,,A,, A,,A,, |
[V:1]f/d'/d'/a/ a/f/f/d/ A/g/g/g/ |
[V:2]D2 z2 A/c/c/c/ |
[V:3]D2 z2 C/E/E/E/ |
[V:4]D,2 z2 A,,2 |
[V:1]f/d'/d'/a/ a/f/f/d/ A/g/g/g/ |
[V:2]d2 z2 A/c/c/c/ |
[V:3]D2 z2 C/E/E/E/ |
[V:4]D,2 z2 A,,2 |
[V:1]f/a/g/f/ g/a/b/c'/ d'2 |
[V:2]d2 z4 |
[V:3]D2 z4 |
[V:4]D,2 z4 |
[V:1]bg'/e'/ d'2 e'2 |
[V:2]db/g/ fe/d/ c2 |
[V:3]GG AA A,A, |
[V:4]G,G, A,A, A,,A,, |
[V:1]d'2 z4 |
[V:2]d3 d/c/ c/B/B/A/ |
[V:3]D3 B/A/ A/G/G/F/ |
[V:4]D,D, D,D, D,D, |
[V:1]z2 z/b/b/a/ a/g/g/f/ |
[V:2]A/G/G/F/ F/g/g/f/ f/e/e/d/ |
[V:3]F/E/E/D/ D2 z2 |
[V:4]D,D, D,D, D,D, |
[V:1]f2 e2 z2 |
[V:2]d2 d2 z2 |
[V:3]B2 B2 z2 |
[V:4]B,2 ^G,2 z2 |
[V:1]e2- eg/f/ gf/e/ |
[V:2]d2 cc cc |
[V:3]AA AA AA |
[V:4]A,A, A,A, A,A, |
[V:1]d2 z/B/g/f/ g/e/d/c/ |
[V:2]d/A/G/F/ G4 |
[V:3]A/F/E/D/ E4 |
[V:4]D,D, D,D, D,D, |
[V:1]d2 z/B,/G/F/ G/E/D/C/ |
[V:2]F/A/G/F/ G4 |
[V:3]A,/F/E/D/ E4 |
[V:4]D,D, D,D, D,D, |
[V:1]D4 z2 |]
[V:2]F4 z2 |]
[V:3]A,4 z2 |]
[V:4]D,,6 |]

